X:1
T:I Dreamed That the Great Judgment Morning
T:I Dreamed That the Great Judgment Morning
T:Leander Lycurgus Pickett
T:Bertram Henry Shadduck, 1894
T:Public Domain Courtesy of the Cyber Hymnal™
T:Public Domain Courtesy of the Cyber Hymnal™
C:Leander Lycurgus Pickett
Z:Public Domain
Z:Courtesy of the Cyber Hymnal™
%%score ( 1 2 ) ( 3 4 )
L:1/8
Q:1/4=100
M:6/8
K:C
V:1 treble 
V:2 treble 
V:3 bass 
V:4 bass 
V:1
 [EG] | [Ec]2 [Ec]/[Ec]/ [Fc][Fc][Fc] | [Ec]3 [EG]2 [EG] | [DG]2 [DG]/[DG]/ [FG][FG][FG] | %4
w: 1.~I|dreamed that the great judg- ment|morn- ing Had|dawned, and the trump- et had|
w: 2.~The|rich man was there, but his|mo- ney Had|melt- ed and van- ished a-|
w: 3.~The|wi- dow was there with the|or- phans, God|heard and re- mem- bered their|
w: 4.~The|mor- al man came to the|judg- ment, But|self right- eous rags would not|
 [EG]3- [EG]2 [EG] | [Ec]2 [Ec]/[Ec]/ [Fc][Fc][Fc] | [Ec]3 [EG]2 G | %7
w: blown; * I|dreamed that the na- tions had|ga- thered To|
w: way; * A|pau- per he stood in the|judg- ment, His|
w: cries; * No|sor- row in Hea- ven for-|e- ver, God|
w: do; * The|men who had cru- ci- fied|Je- sus Had|
 [^FB]2 [FA]/[FB]/ [Fd][Fc][FA] | G3- G2 ([EG]/[EG]/) | [EG]2 [EG]/[EG]/ [DG][DF][B,D] | %10
w: judg- ment be- fore the white|throne; * From~the *|throne came a bright shin- ing|
w: debts were too hea- vy to|pay; * The *|great man was there, but his|
w: wiped all the tears from their|eyes; * The *|gam- bler was there and the|
w: passed off as mor- al men,|too; * The *|soul that had put off sal-|
 [CE]3 [EG]2 ([EG]/[EG]/) | [Ec]2 [Ec]/[Ec]/ [Ee][Ed][Ec] | [Gd]3- [Gd]2 ([FG]/[FG]/) | %13
w: an- gel, And~he *|stood on the land and the|sea, * And~he *|
w: great- ness, When *|death came, was left far be-|hind! * The *|
w: drunk- ard, And~the *|man that had sold them the|drink, * With~the *|
w: va- tion, “Not~to- *|night; I’ll get saved by and|by, * No *|
 [Ec]2 [Ec]/[Ec]/ [Ec][Fc][Gc] | [Ac]3 [FA]2 ([FA]/[FA]/) | [EG][DF][CE] [B,D][B,E][B,D] | %16
w: swore with his hand raised to|Hea- ven, That *|time was no long- er to|
w: an- gel that o- pened the|re- cords, Not~a *|trace of his great- ness could|
w: peo- ple who gave him the|li- cense, To- *|ge- ther in hell they did|
w: time now to think of re-|li- gion!” At *|last they had found time to|
 C3- C2 ||"^Refrain" [EG] | [EG]2 [EG]/[EG]/ [EG][EG][EG] | [FA]3 [FA]2 [FA]/[FA]/ | %20
w: be. *||||
w: find. *||||
w: sink. *||||
w: die. *||||
 [^FA]2 [FA] [FA][FA][FA] | [GB]3- [GB]2 G | [Ge]2 [Ge]/[Ge]/ [Ge][Gd][Gc] | [Ac]3 [FA]2 [FA] | %24
w: ||||
w: ||||
w: ||||
w: ||||
 [EG]2 [EG]/[EG]/ [DG][DG][FG] | [EG]3- [EG]2 |] %26
w: ||
w: ||
w: ||
w: ||
V:2
 x | x6 | x6 | x6 | x6 | x6 | x5 G | x6 | G3- G2 x | x6 | x6 | x6 | x6 | x6 | x6 | x6 | C3- C2 || %17
 x | x6 | x6 | x6 | x5 G | x6 | x6 | x6 | x5 |] %26
V:3
 [C,C] | [C,G,]2 [C,G,]/[C,G,]/ [C,A,][C,A,][C,A,] | [C,G,]3 [C,C]2 [C,C] | %3
w: ~|~ ~ ~ ~ ~ ~|~ ~ ~|
 [G,B,]2 [G,B,]/[G,B,]/ [G,,D][G,,D][G,,D] | [C,C]3- [C,C]2 [C,C] | %5
w: ~ ~ ~ ~ ~ ~|~ * ~|
 [C,G,]2 [C,G,]/[C,G,]/ [C,A,][C,A,][C,A,] | [C,G,]3 [C,C]2 [E,C] | %7
w: ~ ~ ~ ~ ~ ~|~ ~ ~|
 [D,D]2 [D,D]/[D,D]/ [D,A,][D,A,][D,C] | [G,,B,]3- [G,,B,]2 ([C,C]/[C,C]/) | %9
w: ~ ~ ~ ~ ~ ~|~ * ~ *|
 [C,C]2 [C,C]/[C,C]/ [G,B,][G,B,]G, | [C,G,]3 [C,C]2 ([C,C]/[C,C]/) | A,2 A,/A,/ [A,C][A,C][A,C] | %12
w: ~ ~ ~ ~ ~ ~|~ ~ ~ *|~ ~ ~ ~ ~ ~|
 [G,B,]3- [G,B,]2 ([G,B,]/[G,B,]/) | [C,C]2 [C,C]/[C,C]/ [C,C][D,C][E,C] | %14
w: ~ * ~ *|~ ~ ~ ~ ~ ~|
 [F,C]3 [F,C]2 ([F,C]/[F,C]/) | [G,C]G,G, [G,,F,][G,,G,][G,,F,] | [C,E,]3- [C,E,]2 || [C,C] | %18
w: ~ ~ ~ *|~ ~ ~ ~ ~ ~|~ *|And|
 [C,C]2 [C,C]/[C,C]/ [C,C][C,C][C,C] | [F,C]3 [F,C]2 [F,C]/[F,C]/ | [D,D]2 [D,D] [D,D][D,D][D,D] | %21
w: O, what a weep- ing and|wail- ing, As the|lost were told of their|
 [G,D]3- [G,D]2 [G,B,] | [C,C]2 [C,C]/[C,C]/ [C,C][D,B,][D,C] | [F,C]3 [F,C]2 [F,C] | %24
w: fate; * They|cried for the rocks and the|mount- ains, They|
 [G,C]2 [G,C]/[G,C]/ [G,,B,][G,,B,][G,,D] | [C,C]3- [C,C]2 |] %26
w: prayed, but their prayer was too|late. *|
V:4
 x | x6 | x6 | x6 | x6 | x6 | x6 | x6 | x6 | x5 G, | x6 | A,2 A,/A,/ x3 | x6 | x6 | x6 | %15
 x G,G, x3 | x5 || x | x6 | x6 | x6 | x6 | x6 | x6 | x6 | x5 |] %26

